X:58
T:Hogmanay or Adieu to the Auld Year
T:Soraidh leis an t-seana bhliadhna
R:Strathspey
S:Simon Fraser Collection
N:No.6
O:Scottish
M:C
L:1/8
K:A
E|C>EA>E C/C/C C2|C>E A<c B>B, B,<E|C>EA>E C/C/C C2|e/d/c/B/ A>E C2 C:|
e|f/e/d/c/ a<c e<c e>a|e>c a>g b>B B<a|f/e/d/c/ a>c e>c f<a|gf
c2 c<a|
f/e/d/c/ a<c e<c e>a|e>c a>g b>B Bc/d/|e<cB<G A>c GA E<A C2 C||
